source/img/energo/activity-2.3.svg

<svg width="134" height="134" viewBox="0 0 134 134" fill="none" xmlns="http://www.w3.org/2000/svg">
<path d="M15.0738 8.80298C43.4453 8.80298 71.6697 8.80298 100.188 8.80298C100.188 31.4903 100.188 54.0307 100.188 77.3061C101.217 76.1791 101.805 75.5421 102.344 74.905C107.391 68.7799 112.34 62.6058 117.485 56.5787C118.465 55.4517 120.328 55.1087 121.798 54.4227C122.484 54.0797 123.268 53.8837 123.807 53.3447C124.934 52.2667 125.816 50.9927 126.943 49.9146C128.56 48.3956 130.716 48.3466 132.333 49.6206C133.999 50.9437 134.44 53.1977 133.264 55.1087C132.823 55.8927 132.186 56.5298 131.598 57.2158C130.324 58.7348 128.707 59.9598 129.883 62.4588C130.226 63.1939 129.295 64.7129 128.658 65.6929C127.874 66.9179 126.747 67.8979 125.767 68.976C128.266 73.827 128.217 74.268 124.591 78.4821C120.965 82.6962 117.338 86.9102 113.712 91.1243C113.124 91.8103 112.536 92.4473 111.801 93.1823C111.066 92.5453 110.478 92.0553 109.645 91.3693C112.487 88.0373 115.231 84.8522 117.975 81.6182C119.838 79.4621 121.749 77.3061 123.562 75.101C124.787 73.631 124.738 73.435 123.464 71.622C122.925 72.112 122.386 72.553 121.945 73.092C115.084 80.6381 108.224 88.1843 101.462 95.8284C100.678 96.7104 100.188 98.1314 100.188 99.2584C100.09 106.021 100.139 112.783 100.139 119.937C98.7182 119.937 97.4441 119.937 96.1701 119.937C94.5531 119.937 92.8871 119.937 91.27 119.937C87.448 119.986 83.1359 118.957 79.9019 120.329C76.7658 121.652 74.7078 125.572 72.0127 128.169C71.0817 129.1 69.7587 129.737 68.5337 130.325C65.9856 131.501 63.3396 132.579 60.0565 134C61.4776 129.002 62.7516 124.592 64.0256 120.035C48.1493 120.035 31.6361 120.035 15.0248 120.035C15.0738 82.7942 15.0738 45.9456 15.0738 8.80298ZM17.9649 116.899C18.5039 116.997 18.7489 117.046 18.9939 117.046C34.7231 117.046 50.5014 117.095 66.2306 116.997C67.1127 116.997 68.1907 116.311 68.7787 115.625C77.8438 104.698 86.86 93.7214 95.7781 82.6962C96.6111 81.6672 97.1501 80.0991 97.1501 78.7761C97.2481 57.3138 97.1991 35.8514 97.1991 14.3891C97.1991 13.5071 97.1991 12.674 97.1991 11.841C70.5427 11.841 44.2293 11.841 17.9159 11.841C17.9649 46.9256 17.9649 81.8142 17.9649 116.899ZM70.9347 125.18C87.742 106.56 104.451 88.1353 121.308 69.515C119.152 67.6039 117.191 65.8399 115.084 63.9779C99.1102 83.3822 83.3319 102.639 67.3577 122.044C68.6317 123.122 69.7097 124.053 70.9347 125.18ZM82.3519 116.85C87.693 116.85 92.3481 116.85 97.0031 116.85C97.0031 111.509 97.0031 106.315 97.0031 100.63C92.0051 106.168 87.35 111.362 82.3519 116.85ZM123.415 67.5059C124.689 65.6929 125.816 64.0759 126.943 62.4588C125.032 60.7438 123.072 59.0288 121.161 57.3138C119.74 58.6858 118.318 60.0088 116.75 61.5278C119.102 63.6349 121.063 65.3989 123.415 67.5059ZM126.943 58.0978C128.168 56.6277 129.393 55.3537 130.422 53.9327C130.716 53.4917 130.52 52.6587 130.52 52.0217C129.883 52.1197 129.001 51.9237 128.658 52.3157C127.335 53.5897 126.208 55.0597 124.983 56.4807C125.718 57.1178 126.257 57.5588 126.943 58.0978ZM64.6136 128.855C66.2306 128.12 67.2597 127.679 68.6317 127.091C67.5047 126.16 66.7697 125.523 65.7406 124.592C65.2996 126.062 65.0546 127.14 64.6136 128.855Z" fill="white"/>
<path d="M10.4673 124.2C20.8065 124.2 30.6557 124.2 40.7008 124.2C40.7008 125.18 40.7008 126.013 40.7008 126.993C29.7246 126.993 18.8465 126.993 7.82129 126.993C7.82129 102.002 7.82129 77.1587 7.82129 52.1193C8.6543 52.0703 9.43832 52.0213 10.4673 51.9233C10.4673 75.9827 10.4673 99.9441 10.4673 124.2Z" fill="white"/>
<path d="M10.3698 40.3103C9.43876 40.3103 8.70375 40.3103 7.77274 40.3103C7.77274 34.0872 7.77274 28.0601 7.77274 21.788C8.60575 21.739 9.38976 21.641 10.3698 21.592C10.3698 27.8151 10.3698 33.9402 10.3698 40.3103Z" fill="white"/>
<path d="M39.9662 98.7195C39.6722 99.8466 39.4762 100.582 39.1822 101.66C45.0133 101.072 49.2274 97.3475 54.1764 95.3385C55.5485 98.3765 52.8044 99.9446 52.1184 102.836C53.3434 102.199 54.3234 101.856 55.0095 101.268C56.2345 100.19 57.3125 98.9646 58.4395 97.7885C60.2525 95.9755 61.8206 94.5055 65.0546 95.0935C67.9457 95.6325 71.2287 94.7995 74.1688 94.0645C75.8838 93.6235 76.7658 93.8195 77.5988 95.7305C76.3738 96.2205 75.1488 97.0045 73.8748 97.2005C70.7387 97.6415 67.5537 97.7395 64.4176 98.2295C63.0946 98.4255 61.7226 99.0136 60.6445 99.7976C59.3215 100.729 58.4395 102.199 57.1655 103.228C56.1855 104.061 55.0585 104.845 53.8824 105.237C50.6974 106.315 49.1294 105.188 48.8844 101.562C44.6213 103.228 40.5542 105.923 35.7521 103.963C36.8302 94.4565 42.1222 87.9884 50.5014 85.6853C52.2654 85.1953 54.1764 84.7543 55.4015 86.5184C56.6265 88.2824 55.7445 90.0464 54.6174 91.4674C51.1384 95.7795 46.3363 97.8865 41.1912 99.5036C40.9952 99.5526 40.7502 99.4546 40.5052 99.3566C40.4072 99.2586 40.3092 99.0626 39.9662 98.7195ZM53.2454 88.3804C48.4433 88.3314 42.5632 92.3494 41.5342 96.3675C45.9933 94.5545 50.2564 92.8395 53.2454 88.3804Z" fill="white"/>
<path d="M82.6948 29.0403C82.6948 29.9713 82.6948 30.7553 82.6948 31.6373C65.8875 31.6373 49.1782 31.6373 32.3709 31.6373C32.3709 30.7553 32.3709 29.9713 32.3709 29.0403C49.0802 29.0403 65.7895 29.0403 82.6948 29.0403Z" fill="white"/>
<path d="M32.3709 57.608C32.3709 56.6769 32.3709 55.8929 32.3709 54.9619C49.1782 54.9619 65.8875 54.9619 82.6948 54.9619C82.6948 55.8439 82.6948 56.6279 82.6948 57.608C65.9365 57.608 49.2762 57.608 32.3709 57.608Z" fill="white"/>
<path d="M82.743 68.094C82.743 68.976 82.743 69.662 82.743 70.593C65.9847 70.593 49.3245 70.593 32.3702 70.593C32.3212 69.809 32.2722 69.074 32.2232 68.094C49.0795 68.094 65.7887 68.094 82.743 68.094Z" fill="white"/>
<path d="M32.4686 44.5735C31.8806 42.6624 32.2726 41.8784 34.2816 41.8784C49.7659 41.9274 65.2501 41.9274 80.7834 41.8784C82.7924 41.8784 83.2334 42.6624 82.5964 44.5735C65.9361 44.5735 49.2759 44.5735 32.4686 44.5735Z" fill="white"/>
</svg>

<svg width="134" height="134" fill="none" xmlns="http://www.w3.org/2000/svg"><path d="M15.074 8.803h85.114v68.503c1.029-1.127 1.617-1.764 2.156-2.401 5.047-6.125 9.996-12.3 15.141-18.326.98-1.127 2.843-1.47 4.313-2.156.686-.343 1.47-.54 2.009-1.078 1.127-1.078 2.009-2.352 3.136-3.43 1.617-1.52 3.773-1.568 5.39-.294 1.666 1.323 2.107 3.577.931 5.488-.441.784-1.078 1.42-1.666 2.107-1.274 1.519-2.891 2.744-1.715 5.243.343.735-.588 2.254-1.225 3.234-.784 1.225-1.911 2.205-2.891 3.283 2.499 4.851 2.45 5.292-1.176 9.506l-10.879 12.642a35.315 35.315 0 01-1.911 2.058 103.367 103.367 0 00-2.156-1.813c2.842-3.332 5.586-6.517 8.33-9.75 1.863-2.157 3.774-4.313 5.587-6.518 1.225-1.47 1.176-1.666-.098-3.479-.539.49-1.078.931-1.519 1.47-6.861 7.546-13.721 15.092-20.483 22.736-.784.882-1.274 2.303-1.274 3.43-.098 6.763-.049 13.525-.049 20.679H91.27c-3.822.049-8.134-.98-11.368.392-3.136 1.323-5.194 5.243-7.89 7.84-.93.931-2.253 1.568-3.478 2.156-2.548 1.176-5.194 2.254-8.478 3.675 1.422-4.998 2.696-9.408 3.97-13.965H15.025c.049-37.24.049-74.09.049-111.232zm2.89 108.096c.54.098.785.147 1.03.147 15.73 0 31.507.049 47.237-.049.882 0 1.96-.686 2.548-1.372a3435.48 3435.48 0 0027-32.929c.832-1.029 1.371-2.597 1.371-3.92.098-21.462.05-42.925.05-64.387v-2.548H17.915c.049 35.085.049 69.973.049 105.058zm52.97 8.281c16.808-18.62 33.517-37.045 50.374-55.665-2.156-1.911-4.117-3.675-6.224-5.537-15.974 19.404-31.752 38.661-47.726 58.066a109.1 109.1 0 013.577 3.136zm11.418-8.33h14.651v-16.22c-4.998 5.538-9.653 10.732-14.651 16.22zm41.063-49.344c1.274-1.813 2.401-3.43 3.528-5.047-1.911-1.715-3.871-3.43-5.782-5.145-1.421 1.372-2.843 2.695-4.411 4.214 2.352 2.107 4.313 3.87 6.665 5.978zm3.528-9.408c1.225-1.47 2.45-2.744 3.479-4.165.294-.441.098-1.274.098-1.911-.637.098-1.519-.098-1.862.294-1.323 1.274-2.45 2.744-3.675 4.165a48.345 48.345 0 001.96 1.617zm-62.33 70.757c1.618-.735 2.647-1.176 4.019-1.764a76.03 76.03 0 01-2.891-2.499c-.441 1.47-.686 2.548-1.127 4.263z" fill="#fff"/><path d="M10.467 124.2h30.234v2.793H7.82V52.119a68.026 68.026 0 002.646-.196V124.2zm-.097-83.89H7.773V21.788c.833-.049 1.617-.147 2.597-.196V40.31zm29.596 58.41a244.02 244.02 0 01-.784 2.94c5.831-.588 10.045-4.313 14.994-6.322 1.372 3.038-1.372 4.607-2.058 7.498 1.225-.637 2.205-.98 2.892-1.568 1.224-1.078 2.303-2.303 3.43-3.48 1.813-1.813 3.38-3.282 6.615-2.694 2.89.538 6.174-.294 9.114-1.03 1.715-.44 2.597-.244 3.43 1.667-1.225.49-2.45 1.273-3.724 1.47-3.136.44-6.321.539-9.457 1.029-1.323.195-2.695.784-3.774 1.568-1.322.931-2.204 2.401-3.478 3.43-.98.833-2.107 1.617-3.284 2.009-3.185 1.078-4.753-.049-4.998-3.675-4.263 1.666-8.33 4.361-13.132 2.401 1.078-9.506 6.37-15.975 14.75-18.278 1.763-.49 3.674-.93 4.9.833 1.224 1.764.343 3.528-.785 4.95-3.479 4.311-8.28 6.418-13.426 8.036-.196.049-.44-.05-.686-.147-.098-.098-.196-.294-.539-.638zm13.28-10.34c-4.803-.049-10.683 3.97-11.712 7.988 4.46-1.813 8.722-3.528 11.711-7.988zm29.449-59.34v2.597H32.37V29.04h50.324zM32.37 57.608v-2.646h50.325v2.646H32.37zm50.373 10.486v2.499H32.37c-.049-.784-.098-1.519-.147-2.499h50.52zm-50.274-23.52c-.588-1.912-.196-2.696 1.813-2.696 15.484.05 30.968.05 46.501 0 2.01 0 2.45.784 1.813 2.696H32.47z" fill="#fff"/></svg>
